assets/dude/We–June.svg

<svg width="239" height="116" viewBox="0 0 239 116" fill="none" xmlns="http://www.w3.org/2000/svg">
<path d="M144.903 11.5199C142.103 11.5199 139.863 12.0799 137.063 13.4799C136.783 13.6199 136.363 13.8999 136.083 13.8999C135.803 13.8999 135.663 13.6199 135.663 13.4799C135.663 6.47993 130.343 0.87993 123.343 0.87993C116.343 0.87993 111.023 6.47993 111.023 13.4799C111.023 13.6199 110.883 13.8999 110.603 13.8999C110.323 13.8999 109.903 13.6199 109.623 13.4799C106.823 12.0799 104.583 11.5199 101.783 11.5199C101.083 11.5199 100.523 12.0799 100.523 12.7799C100.523 14.5999 102.623 17.3999 102.623 42.7399C102.623 43.4399 103.183 43.9999 103.883 43.9999H119.283C119.843 43.9999 120.123 44.2799 120.123 44.5599C120.123 44.9799 119.703 45.8199 119.703 45.8199L108.923 69.8999C108.223 71.2999 107.663 71.7199 106.963 71.7199H94.5032C93.8032 71.7199 93.2432 71.2999 92.4032 69.7599L81.7632 45.8199C81.7632 45.8199 81.3432 44.9799 81.3432 44.5599C81.3432 44.2799 81.6232 43.9999 82.1832 43.9999H91.9832C92.6832 43.9999 93.2432 43.4399 93.2432 42.7399C93.2432 17.3999 95.3432 14.5999 95.3432 12.7799C95.3432 12.0799 94.7832 11.5199 94.0832 11.5199C91.2832 11.5199 89.6032 12.0799 86.8032 13.4799C86.5232 13.6199 86.1032 13.8999 85.8232 13.8999C85.5432 13.8999 85.4032 13.6199 85.4032 13.4799C85.4032 6.47993 80.2232 0.87993 73.2232 0.87993C66.2232 0.87993 61.0432 6.47993 61.0432 13.4799C61.0432 13.6199 60.9032 13.8999 60.6232 13.8999C60.3432 13.8999 59.9232 13.6199 59.6432 13.4799C56.8432 12.0799 55.1632 11.5199 52.3632 11.5199C51.6632 11.5199 51.1032 12.0799 51.1032 12.7799C51.1032 14.5999 53.2032 17.3999 53.2032 42.7399C53.2032 43.4399 53.7632 43.9999 54.4632 43.9999H66.3632C66.9232 43.9999 67.2032 44.2799 67.2032 44.5599C67.2032 44.9799 66.7832 45.8199 66.7832 45.8199L56.0032 69.8999C55.3032 71.2999 54.7432 71.7199 54.0432 71.7199H41.5832C40.8832 71.7199 40.3232 71.2999 39.4832 69.7599L28.8432 45.8199C28.8432 45.8199 28.4232 44.9799 28.4232 44.5599C28.4232 44.2799 28.7032 43.9999 29.2632 43.9999H42.5632C43.2632 43.9999 43.8232 43.4399 43.8232 42.7399C43.8232 17.3999 45.9232 14.5999 45.9232 12.7799C45.9232 12.0799 45.3632 11.5199 44.6632 11.5199C41.8632 11.5199 39.6232 12.0799 36.8232 13.4799C36.5432 13.6199 36.1232 13.8999 35.8432 13.8999C35.5632 13.8999 35.4232 13.6199 35.4232 13.4799C35.4232 6.47993 30.1032 0.87993 23.1032 0.87993C16.1032 0.87993 10.7832 6.47993 10.7832 13.4799C10.7832 13.6199 10.6432 13.8999 10.3632 13.8999C10.0832 13.8999 9.6632 13.6199 9.3832 13.4799C6.5832 12.0799 4.3432 11.5199 1.5432 11.5199C0.843203 11.5199 0.283203 12.0799 0.283203 12.7799C0.283203 14.5999 2.3832 17.3999 2.3832 42.7399C2.3832 43.4399 2.9432 43.9999 3.6432 43.9999H11.9032C12.6032 43.9999 13.3032 44.5599 13.8632 45.8199L40.8832 106.86C41.1632 107.42 42.4232 109.52 45.3632 109.52C48.0232 109.52 49.4232 107.42 49.7032 106.86L70.2832 60.7999C70.2832 60.7999 70.9832 58.9799 71.8232 58.9799C72.6632 58.9799 73.3632 60.7999 73.3632 60.7999L93.8032 106.86C94.0832 107.42 95.3432 109.52 98.2832 109.52C100.943 109.52 102.343 107.42 102.623 106.86L129.783 45.8199C130.343 44.5599 131.043 43.9999 131.743 43.9999H142.803C143.503 43.9999 144.063 43.4399 144.063 42.7399C144.063 17.3999 146.163 14.5999 146.163 12.7799C146.163 12.0799 145.603 11.5199 144.903 11.5199Z" fill="#FF1C31"/>
<path d="M236.5 65.8399C236.5 65.1399 235.94 64.5799 235.24 64.5799H227.96C227.26 64.5799 226.7 65.1399 226.7 65.8399C226.7 69.3399 223.9 71.7199 220.4 71.7199H181.06C180.36 71.7199 179.8 71.1599 179.8 70.4599V62.8999C179.8 62.1999 180.36 61.6399 181.06 61.6399H192.82C193.52 61.6399 194.08 62.1999 194.08 62.8999V64.1599C194.08 64.8599 194.64 65.4199 195.34 65.4199H214.24C214.94 65.4199 215.5 64.8599 215.5 64.1599V51.5599C215.5 50.8599 214.94 50.2999 214.24 50.2999H195.34C194.64 50.2999 194.08 50.8599 194.08 51.5599V52.8199C194.08 53.5199 193.52 54.0799 192.82 54.0799H181.06C180.36 54.0799 179.8 53.5199 179.8 52.8199V45.2599C179.8 44.5599 180.36 43.9999 181.06 43.9999H220.4C223.9 43.9999 226.7 46.3799 226.7 49.8799C226.7 50.5799 227.26 51.1399 227.96 51.1399H235.24C235.94 51.1399 236.5 50.5799 236.5 49.8799V42.7399C236.5 17.3999 238.6 14.5999 238.6 12.7799C238.6 12.0799 238.04 11.5199 237.34 11.5199C231.18 11.5199 222.78 13.1999 217.46 16.4199C216.76 16.8399 215.92 17.3999 215.64 17.3999C215.36 17.3999 215.22 16.9799 215.22 16.9799C213.4 7.45993 205 0.179932 194.92 0.179932C184.84 0.179932 176.44 7.45993 174.62 16.9799C174.62 16.9799 174.48 17.3999 174.2 17.3999C173.92 17.3999 173.08 16.8399 172.38 16.4199C167.06 13.1999 158.66 11.5199 152.5 11.5199C151.8 11.5199 151.24 12.0799 151.24 12.7799C151.24 14.5999 153.34 17.3999 153.34 42.7399C153.34 43.4399 153.9 43.9999 154.6 43.9999H168.46C169.16 43.9999 169.72 44.5599 169.72 45.2599V70.4599C169.72 71.1599 169.16 71.7199 168.46 71.7199H154.6C153.9 71.7199 153.34 72.2799 153.34 72.9799C153.34 98.3199 151.24 101.12 151.24 102.94C151.24 103.64 151.8 104.2 152.5 104.2C158.66 104.2 167.06 102.52 172.38 99.2999C173.08 98.8799 173.92 98.3199 174.2 98.3199C174.48 98.3199 174.62 98.7399 174.62 98.7399C176.44 108.26 184.84 115.54 194.92 115.54C205 115.54 213.4 108.26 215.22 98.7399C215.22 98.7399 215.36 98.3199 215.64 98.3199C215.92 98.3199 216.76 98.8799 217.46 99.2999C222.78 102.52 231.18 104.2 237.34 104.2C238.04 104.2 238.6 103.64 238.6 102.94C238.6 101.12 236.5 98.3199 236.5 72.9799V65.8399Z" fill="#FF1C31"/>
</svg>

<svg xmlns="http://www.w3.org/2000/svg" fill="none" viewBox="0 0 239 116"><path fill="#FF1C31" d="M144.903 11.52c-2.8 0-5.04.56-7.84 1.96-.28.14-.7.42-.98.42s-.42-.28-.42-.42c0-7-5.32-12.6-12.32-12.6s-12.32 5.6-12.32 12.6c0 .14-.14.42-.42.42-.28 0-.7-.28-.98-.42-2.8-1.4-5.04-1.96-7.84-1.96-.7 0-1.26.56-1.26 1.26 0 1.82 2.1 4.62 2.1 29.96 0 .7.56 1.26 1.26 1.26h15.4c.56 0 .84.28.84.56 0 .42-.42 1.26-.42 1.26l-10.78 24.08c-.7 1.4-1.26 1.82-1.96 1.82h-12.46c-.7 0-1.26-.42-2.1-1.96l-10.64-23.94s-.42-.84-.42-1.26c0-.28.28-.56.84-.56h9.8c.7 0 1.26-.56 1.26-1.26 0-25.34 2.1-28.14 2.1-29.96 0-.7-.56-1.26-1.26-1.26-2.8 0-4.48.56-7.28 1.96-.28.14-.7.42-.98.42s-.42-.28-.42-.42c0-7-5.18-12.6-12.18-12.6s-12.18 5.6-12.18 12.6c0 .14-.14.42-.42.42-.28 0-.7-.28-.98-.42-2.8-1.4-4.48-1.96-7.28-1.96-.7 0-1.26.56-1.26 1.26 0 1.82 2.1 4.62 2.1 29.96 0 .7.56 1.26 1.26 1.26h11.9c.56 0 .84.28.84.56 0 .42-.42 1.26-.42 1.26L56.003 69.9c-.7 1.4-1.26 1.82-1.96 1.82h-12.46c-.7 0-1.26-.42-2.1-1.96l-10.64-23.94s-.42-.84-.42-1.26c0-.28.28-.56.84-.56h13.3c.7 0 1.26-.56 1.26-1.26 0-25.34 2.1-28.14 2.1-29.96 0-.7-.56-1.26-1.26-1.26-2.8 0-5.04.56-7.84 1.96-.28.14-.7.42-.98.42s-.42-.28-.42-.42c0-7-5.32-12.6-12.32-12.6s-12.32 5.6-12.32 12.6c0 .14-.14.42-.42.42-.28 0-.7-.28-.98-.42-2.8-1.4-5.04-1.96-7.84-1.96-.7 0-1.26.56-1.26 1.26 0 1.82 2.1 4.62 2.1 29.96 0 .7.56 1.26 1.26 1.26h8.26c.7 0 1.4.56 1.96 1.82l27.02 61.04c.28.56 1.54 2.66 4.48 2.66 2.66 0 4.06-2.1 4.34-2.66l20.58-46.06s.7-1.82 1.54-1.82c.84 0 1.54 1.82 1.54 1.82l20.44 46.06c.28.56 1.54 2.66 4.48 2.66 2.66 0 4.06-2.1 4.34-2.66l27.16-61.04c.56-1.26 1.26-1.82 1.96-1.82h11.06c.7 0 1.26-.56 1.26-1.26 0-25.34 2.1-28.14 2.1-29.96 0-.7-.56-1.26-1.26-1.26zM236.5 65.84c0-.7-.56-1.26-1.26-1.26h-7.28c-.7 0-1.26.56-1.26 1.26 0 3.5-2.8 5.88-6.3 5.88h-39.34c-.7 0-1.26-.56-1.26-1.26V62.9c0-.7.56-1.26 1.26-1.26h11.76c.7 0 1.26.56 1.26 1.26v1.26c0 .7.56 1.26 1.26 1.26h18.9c.7 0 1.26-.56 1.26-1.26v-12.6c0-.7-.56-1.26-1.26-1.26h-18.9c-.7 0-1.26.56-1.26 1.26v1.26c0 .7-.56 1.26-1.26 1.26h-11.76c-.7 0-1.26-.56-1.26-1.26v-7.56c0-.7.56-1.26 1.26-1.26h39.34c3.5 0 6.3 2.38 6.3 5.88 0 .7.56 1.26 1.26 1.26h7.28c.7 0 1.26-.56 1.26-1.26v-7.14c0-25.34 2.1-28.14 2.1-29.96 0-.7-.56-1.26-1.26-1.26-6.16 0-14.56 1.68-19.88 4.9-.7.42-1.54.98-1.82.98s-.42-.42-.42-.42C213.4 7.46 205 .18 194.92.18s-18.48 7.28-20.3 16.8c0 0-.14.42-.42.42-.28 0-1.12-.56-1.82-.98-5.32-3.22-13.72-4.9-19.88-4.9-.7 0-1.26.56-1.26 1.26 0 1.82 2.1 4.62 2.1 29.96 0 .7.56 1.26 1.26 1.26h13.86c.7 0 1.26.56 1.26 1.26v25.2c0 .7-.56 1.26-1.26 1.26H154.6c-.7 0-1.26.56-1.26 1.26 0 25.34-2.1 28.14-2.1 29.96 0 .7.56 1.26 1.26 1.26 6.16 0 14.56-1.68 19.88-4.9.7-.42 1.54-.98 1.82-.98s.42.42.42.42c1.82 9.52 10.22 16.8 20.3 16.8s18.48-7.28 20.3-16.8c0 0 .14-.42.42-.42.28 0 1.12.56 1.82.98 5.32 3.22 13.72 4.9 19.88 4.9.7 0 1.26-.56 1.26-1.26 0-1.82-2.1-4.62-2.1-29.96v-7.14z"/></svg>
